packages/core/src/svgs/tokens/mono/VTC.svg

<svg width="24" height="24" viewBox="0 0 24 24" fill="none" xmlns="http://www.w3.org/2000/svg">
<path d="M3.40481 11.1822H8.10886L10.5321 14.4621L8.21149 17.777L3.40481 11.1822ZM3.57867 12.9933H2L2.84518 11.8179L3.56238 12.9933H3.57867ZM8.70893 18.4477L12.063 13.6489L19.5931 2.93079C20.5388 3.78563 21.3503 4.77822 22 5.87504L21.9923 6.0169L11.5897 20.7762C11.5242 20.8656 11.4387 20.9387 11.34 20.9894C11.2414 21.0403 11.1324 21.0675 11.0214 21.069C10.9105 21.0706 10.8006 21.0464 10.7008 20.9983C10.6007 20.9501 10.5133 20.8796 10.4452 20.792L8.70893 18.4477Z" fill="white"/>
</svg>

<svg xmlns="http://www.w3.org/2000/svg" width="24" height="24" fill="none" viewBox="0 0 24 24">
    <path fill="#fff" d="M3.405 11.182h4.704l2.423 3.28-2.32 3.315zm.174 1.811H2l.845-1.175.717 1.175zm5.13 5.455 3.354-4.8 7.53-10.717A12.7 12.7 0 0 1 22 5.875l-.008.142-10.402 14.76a.714.714 0 0 1-.89.221.7.7 0 0 1-.255-.206z"/>
</svg>
